X:1
T:Title
%%score { 1 | 2 }
L:1/8
M:4/4
K:Eb
V:1 treble nm="Grand Piano"
V:2 bass 
V:1
 z4 z2[Q:1/4=100] [GB]>[GB] | [Ge]>[Ge] [Ad]>[Ac] [GB]>[Gc] [GB]>G | E>F G>A B2 [EGc]>[Ge] | %3
 [Ad]>[Ad] [FA]>[FA] [Ad]2 [DAc]2 | [GB]2 [GB]2 [EG]2 [GB]>[GB] | %5
 [Ge]>[Ge] [Ad]>[Ac] [GB]>[Gc] [GB]>G | E>F G>A B2 [EGB]>[Gc] | d>F d>e c>F c>d |[M:3/4] [DB]6 | %9
[M:1/4] [DB]>[DB] |[M:4/4] [DAc]>[DAd] [DAc]>[DAd] [DAc]>[B,DF] [B,EG]>[B,FA] | %11
 [GB]>[_G=A] [=GB]>[_Ac] [GB]2 [GB]>[GB] | [DGB]2 [DFA]2 [B,DF]2 [DAd]2 | %13
 [EGc]2 [EGB]2 [B,EG]2 [EGB]>[EGB] | [DAc]>[DAd] [DAc]>[DAd] [DAc]>[B,DF] [B,EG]>[B,FA] | %15
 [GB]>[_G=A] [=GB]>[_Ac] [GB]2 [GB]2 | c>d e>c B e3 |[M:3/4] G2 [DF]2 E2 |] %18
V:2
 z4 z2 [E,E]>[E,E] | [E,B,]>[E,B,] [E,C]>[E,D] [E,E]>[E,E] [E,E]>[E,B,E] | %2
 E,>F, G,>A, B,2 E,>[E,B,] | [F,B,]>[F,B,] [B,D]>[B,D] [B,,B,]2 B,,2 | %4
 [E,E]2 [E,E]2 [E,B,]2 [E,E]>[E,E] | [E,B,]>[E,B,] [E,C]>[E,D] [E,E]>[E,E] [E,E]>[E,B,E] | %6
 E,>F, G,>A, B,2 E,>[F,B,] | [F,B,F]>[F,B,D] [F,B,F]>[F,CF] [F,=A,E]>[F,A,E] [F,A,E]>[F,A,F] | %8
[M:3/4] [B,,B,]6 |[M:1/4] [B,,B,]>[B,,B,] |[M:4/4] B,,>B,, B,,>B,, B,,>A, G,>F, | %11
 [E,E]>[E,E] [E,E]>[E,E] [E,E]2 [E,E]>[E,E] | B,,2 B,,2 B,,2 B,,2 | E,2 E,2 E,2 E,>E, | %14
 B,,>B,, B,,>B,, B,,>A, G,>F, | [E,E]>[E,E] [E,E]>[E,E] [E,E]2 [E,E]2 | %16
 [A,EA]>[A,DA] [A,CA]>[A,EA][K:bass] [G,E] [G,B,E]3 |[M:3/4] [B,E]2 [B,,A,]2 [E,G,]2 |] %18

